X:3110
T:Johnny Cronin's Fancy
O:england
R:reel
M:C|
K:G
G2FG EGDE|~G3A Bd~d2|eB~B2 dBAF|GBAG FDEF|
G2FG EGDE|~G3A Bd~d2|eB~B2 dBAF|GBAF G4:|
|:Bdd^c d3A|Bd~d2 efg2|Bdd^c d3B|cBAG FGAc|
Bdd^c d3A|Bd~d2 efga|bgaf gedB|cBAG FGAc:|
|:BGGF ~G3A|BG~G2 Bdgd|BGGF G2AB|cBAG FGAc|
BGGF ~G3A|BG~G2 Bdga|bgaf gedB|1 cBAG FGAc:|2 cBAG FGAF||
